X: 25
T: No_32_Song_of_Turtle,_the_Medicine-man.krn
N: Derived from No_32_Song_of_Turtle,_the_Medicine-man.krn
%%abc-version 2.0
%%abcx-abcm2ps-target-version 5.9.1 (29 Sep 2008)
%%abc-creator hum2abc beta
%%abcx-conversion-date 2019/03/15 08:27:55
%%humdrum-veritas 457282649
%%humdrum-veritas-data 2432089569
%%linebreak <none>
%%barnumbers 0
L: 1/8
M: 2/4
K: Eb clef=bass
[K:clef=bass][M:2/4]C/B,3/ B,C/B,/ | 
B,/B,A,/ B, z | 
C/B,3/ B,C/B,/ | 
B,/A,F,/ A,3//A,//A, | 
E,/A,3/ A,A, | 
A,A,/F,// z// A,/(A,3/ | 
E,/)E,3/ E, z | 
D,/F,3/ E,E, | 
E,E,/C,/ E,E, | 
[M:3/4]B,,4z2 | 
[M:2/4]E/B,3/ B,E/B,/ | 
B,B,/A,/ B, z | 
E/B,3/ B,E/B,/ | 
B,A,3//F,// A,A, | 
E,/A,3/ A,(C/A,/) | 
A,A,/F,// z// A,/(A,3/ | 
E,/)E,3/ E, z | 
D,/F,3/ E,E, | 
E,E,/C,/ E,E, | 
B,,4 |]  



